X:469
T: Ein Mdchen ging am Ufer (5-65), S. 106
N: P0739
O: Lothringen
S: MERKELBACH-PINCK, Angelika: Verklingende Weisen, Bd 5, Kassel 1962]
R: Liebe, Tod]
M: 6/8
L: 1/8
K: D
D | D2FF2A | A3F2D | D2CE2D | C4-C
C | C2EE2B | B3G2E | D2AA2G | F4-F
D | D2FA2d | d3c2G | E2Gc2B | A4-A
F | D2FB2A | A3G2F | E2AA2G | F4-F

@@@ Tune index: 8019
